assets/svg/icon_block_grid.svg

<svg width="24" height="24" viewBox="0 0 24 24" fill="none" xmlns="http://www.w3.org/2000/svg">
<path d="M3 6.78752C3 5.00115 3 4.10796 3.55496 3.553C4.10991 2.99805 5.0031 2.99805 6.78947 2.99805C8.57585 2.99805 9.46904 2.99805 10.024 3.553C10.5789 4.10796 10.5789 5.00115 10.5789 6.78752C10.5789 8.5739 10.5789 9.46708 10.024 10.022C9.46904 10.577 8.57585 10.577 6.78947 10.577C5.0031 10.577 4.10991 10.577 3.55496 10.022C3 9.46708 3 8.5739 3 6.78752Z" stroke="#727689" stroke-width="1.5"/>
<path d="M13.4211 17.2086C13.4211 15.4222 13.4211 14.529 13.976 13.9741C14.531 13.4191 15.4242 13.4191 17.2105 13.4191C18.9969 13.4191 19.8901 13.4191 20.445 13.9741C21 14.529 21 15.4222 21 17.2086C21 18.9949 21 19.8881 20.445 20.4431C19.8901 20.998 18.9969 20.998 17.2105 20.998C15.4242 20.998 14.531 20.998 13.976 20.4431C13.4211 19.8881 13.4211 18.9949 13.4211 17.2086Z" stroke="#727689" stroke-width="1.5"/>
<path d="M3 17.2086C3 15.4222 3 14.529 3.55496 13.9741C4.10991 13.4191 5.0031 13.4191 6.78947 13.4191C8.57585 13.4191 9.46904 13.4191 10.024 13.9741C10.5789 14.529 10.5789 15.4222 10.5789 17.2086C10.5789 18.9949 10.5789 19.8881 10.024 20.4431C9.46904 20.998 8.57585 20.998 6.78947 20.998C5.0031 20.998 4.10991 20.998 3.55496 20.4431C3 19.8881 3 18.9949 3 17.2086Z" stroke="#727689" stroke-width="1.5"/>
<path d="M13.4211 6.78752C13.4211 5.00115 13.4211 4.10796 13.976 3.553C14.531 2.99805 15.4242 2.99805 17.2105 2.99805C18.9969 2.99805 19.8901 2.99805 20.445 3.553C21 4.10796 21 5.00115 21 6.78752C21 8.5739 21 9.46708 20.445 10.022C19.8901 10.577 18.9969 10.577 17.2105 10.577C15.4242 10.577 14.531 10.577 13.976 10.022C13.4211 9.46708 13.4211 8.5739 13.4211 6.78752Z" stroke="#727689" stroke-width="1.5"/>
</svg>

<svg xmlns="http://www.w3.org/2000/svg" width="24" height="24" fill="none"><path stroke="#727689" stroke-width="1.5" d="M3 6.788C3 5 3 4.108 3.555 3.553s1.448-.555 3.234-.555 2.68 0 3.235.555.555 1.448.555 3.235 0 2.68-.555 3.234c-.555.555-1.448.555-3.235.555s-2.68 0-3.234-.555C3 9.467 3 8.574 3 6.788ZM13.421 17.209c0-1.787 0-2.68.555-3.235s1.448-.555 3.234-.555 2.68 0 3.235.555S21 15.422 21 17.21s0 2.68-.555 3.234c-.555.555-1.448.555-3.235.555s-2.679 0-3.234-.555-.555-1.448-.555-3.234ZM3 17.209c0-1.787 0-2.68.555-3.235s1.448-.555 3.234-.555 2.68 0 3.235.555.555 1.448.555 3.235 0 2.68-.555 3.234c-.555.555-1.448.555-3.235.555s-2.68 0-3.234-.555C3 19.888 3 18.995 3 17.21ZM13.421 6.788c0-1.787 0-2.68.555-3.235s1.448-.555 3.234-.555 2.68 0 3.235.555S21 5.001 21 6.788s0 2.68-.555 3.234c-.555.555-1.448.555-3.235.555s-2.679 0-3.234-.555-.555-1.448-.555-3.234Z"/></svg>
